X: 35701
T: Saint Anne's
R: reel
M: 4/4
K: Emajor
g2 ga gfec|Bbgb geB^B|caea dece|Bege fedf|
g2 ga gfec|Bbgb geB^B|ceag fedf|e2 ef e2 ef|
g2 ga gfec|Bb (3gbg eBB^B|ca (3eae dece|Bege fedf|
g2 ga gfec|Bb (3gbg eBB^B|ceag fedf|e2 ef e2 ef|
gagf efga|baeb aecA|Bdfg a z ba|z fba bafa|
gagf efga|baeb aecA|Bdfg a z ba|z fde fe e2|
gagf efga|ba z b aecA|Bdfg a z ba|z fba bafa|
gagf efga|baeb aecA|Bdfg a z ba|z fde fee z|

